X: 50
T:Buffens
M:C|
L:1/4
R:Buffens
B:Thoinot Arbeau : Orchesographie, 1589
Z:Steve Mansfield March 2001
K:F
FG AA B4 | AGAF G4 | FG AA B4 | AF GG F4 |
c2 dc B4 | AG AB c4 | c2dc B4 | AF GG F4 ||
%
%Jigs
%
<end>
<start>
